X: 2829
T: Barbara
R: polka
M: 2/4
K: Dmajor
S|:F/G/|AF dA|fd Ad|ce/d/ c/A/B/c/|d/c/d/e/ f F/G/|
AF dA|fd Ad|ce/d/ c/A/B/c/|d2 f2|"To Coda"d3:|
[K:Amaj]
|:c3 B|A4|GB dB|c2 A2|E4|c3 B|A4|(3dcB (3dcB|"D.S. al coda" A4:|
[K:Gmaj]
|:"Coda"D D/D/ DD|ED ^CD|B,D GA|B4|D2 c>B|A4|D2 B>A|G4|
D D/D/ DD|ED ^CD|B,D GA|B4|c/c/c/c/ cA|B/B/B/B/ BG|A/A/A/A/ AF|G2 A2|B4:|
c/c/c/c/ cA|B/B/B/B/ BG|A/A/A/A/ AF|1 G4:|2 G2 B/d/e/f/||
|:g4|fe dc|B4|GB dg|f3 g|a2 fd|g g/g/ ga|b4:|

